src/icons/5x5.svg

<svg xmlns="http://www.w3.org/2000/svg" width="512" height="512" viewBox="0 0 512 512">
    <path d="M373.7 367.2H416v42.3h-42.3v-42.3zm-69.4 0h42.3v42.3h-42.3v-42.3zm-69.5 0h42.3v42.3h-42.3v-42.3zm-69.4 0h42.3v42.3h-42.3v-42.3zm-69.4 0h42.3v42.3H96v-42.3zm277.7-69.4H416v42.3h-42.3v-42.3zm-69.4 0h42.3v42.3h-42.3v-42.3zm-69.5 0h42.3v42.3h-42.3v-42.3zm-69.4 0h42.3v42.3h-42.3v-42.3zm-69.4 0h42.3v42.3H96v-42.3zm277.7-69.5H416v42.3h-42.3v-42.3zm-69.4 0h42.3v42.3h-42.3v-42.3zm-69.5 0h42.3v42.3h-42.3v-42.3zm-69.4 0h42.3v42.3h-42.3v-42.3zm-69.4 0h42.3v42.3H96v-42.3zm277.7-69.4H416v42.3h-42.3v-42.3zm-69.4 0h42.3v42.3h-42.3v-42.3zm-69.5 0h42.3v42.3h-42.3v-42.3zm-69.4 0h42.3v42.3h-42.3v-42.3zm-69.4 0h42.3v42.3H96v-42.3zm277.7-69.4H416v42.3h-42.3V89.5zm-69.4 0h42.3v42.3h-42.3V89.5zm-69.5 0h42.3v42.3h-42.3V89.5zm-69.4 0h42.3v42.3h-42.3V89.5zm-69.4 0h42.3v42.3H96V89.5z"/>
</svg>

<?xml version="1.0" encoding="UTF-8"?>
<svg width="512px" height="512px" viewBox="0 0 512 512" version="1.1" xmlns="http://www.w3.org/2000/svg" xmlns:xlink="http://www.w3.org/1999/xlink">
    <!-- Generator: Sketch 62 (91390) - https://sketch.com -->
    <title>5x5</title>
    <desc>Created with Sketch.</desc>
    <g id="5x5" stroke="none" stroke-width="1" fill="none" fill-rule="evenodd">
        <path d="M373.7,367.2 L416,367.2 L416,409.5 L373.7,409.5 L373.7,367.2 Z M304.3,367.2 L346.6,367.2 L346.6,409.5 L304.3,409.5 L304.3,367.2 Z M234.8,367.2 L277.1,367.2 L277.1,409.5 L234.8,409.5 L234.8,367.2 Z M165.4,367.2 L207.7,367.2 L207.7,409.5 L165.4,409.5 L165.4,367.2 L165.4,367.2 Z M96,367.2 L138.3,367.2 L138.3,409.5 L96,409.5 L96,367.2 L96,367.2 Z M373.7,297.8 L416,297.8 L416,340.1 L373.7,340.1 L373.7,297.8 L373.7,297.8 Z M304.3,297.8 L346.6,297.8 L346.6,340.1 L304.3,340.1 L304.3,297.8 L304.3,297.8 Z M234.8,297.8 L277.1,297.8 L277.1,340.1 L234.8,340.1 L234.8,297.8 L234.8,297.8 Z M165.4,297.8 L207.7,297.8 L207.7,340.1 L165.4,340.1 L165.4,297.8 L165.4,297.8 Z M96,297.8 L138.3,297.8 L138.3,340.1 L96,340.1 L96,297.8 L96,297.8 Z M373.7,228.3 L416,228.3 L416,270.6 L373.7,270.6 L373.7,228.3 L373.7,228.3 Z M304.3,228.3 L346.6,228.3 L346.6,270.6 L304.3,270.6 L304.3,228.3 L304.3,228.3 Z M234.8,228.3 L277.1,228.3 L277.1,270.6 L234.8,270.6 L234.8,228.3 L234.8,228.3 Z M165.4,228.3 L207.7,228.3 L207.7,270.6 L165.4,270.6 L165.4,228.3 L165.4,228.3 Z M96,228.3 L138.3,228.3 L138.3,270.6 L96,270.6 L96,228.3 L96,228.3 Z M373.7,158.9 L416,158.9 L416,201.2 L373.7,201.2 L373.7,158.9 L373.7,158.9 Z M304.3,158.9 L346.6,158.9 L346.6,201.2 L304.3,201.2 L304.3,158.9 L304.3,158.9 Z M234.8,158.9 L277.1,158.9 L277.1,201.2 L234.8,201.2 L234.8,158.9 L234.8,158.9 Z M165.4,158.9 L207.7,158.9 L207.7,201.2 L165.4,201.2 L165.4,158.9 L165.4,158.9 Z M96,158.9 L138.3,158.9 L138.3,201.2 L96,201.2 L96,158.9 L96,158.9 Z M373.7,89.5 L416,89.5 L416,131.8 L373.7,131.8 L373.7,89.5 Z M304.3,89.5 L346.6,89.5 L346.6,131.8 L304.3,131.8 L304.3,89.5 Z M234.8,89.5 L277.1,89.5 L277.1,131.8 L234.8,131.8 L234.8,89.5 Z M165.4,89.5 L207.7,89.5 L207.7,131.8 L165.4,131.8 L165.4,89.5 L165.4,89.5 Z M96,89.5 L138.3,89.5 L138.3,131.8 L96,131.8 L96,89.5 Z" id="Shape" fill="#000000" fill-rule="nonzero"></path>
    </g>
</svg>
